X:1
T:LE CHATEAU AMBULANT
T:LE CHATEAU AMBULANT
T:Joe HASAISHI 
T:arrangé par: Lucas Bernard (piano) Amélie Grossman (piano) Arthur Grossman( guitar)
C:Joe HASAISHI
%%score ( 1 2 ) { 3 | 4 } { ( 5 8 ) | ( 6 7 ) }
L:1/8
Q:1/4=120
M:3/4
K:Eb
V:1 treble-8 nm="Guitare classique" snm="Guit."
V:2 treble-8 
V:3 treble nm="Piano" snm="Pia."
V:4 treble 
V:5 treble nm="Piano" snm="Pia."
V:8 treble 
V:6 bass 
V:7 bass 
V:1
 gagaga | fgfgfg | efefef |[Q:1/4=120]"^rall" dc[Q:1/4=80]=Ba g2 | z6 | z6 | %6
[Q:1/4=120][Q:1/4=120]"^a tempo" G2 c2 e2 | g4 g2 | f2 e2 d2 | e6 | c2 e2 g2 | c'4 c'2 | %12
 c'2 b2 a2 | b6 | d2 g2 b2 | d'4 c'2 | b2 =a2 b2 | c'4 b2 | =a4 g2 | f2 e2 f2 | g2 f2 c2 | d6 | %22
 z6 | c'abgaf | gefd=Bd | c6 | z6 | z2 c'fac | z2 d'abf | z2 d'gbd | z6 | z2 d'gc'e | z2 e'=ac'^f | %33
 z2 g'bd'g | z2 f'c'e'=a | z2 g'b^c'g | z2 ^f'c'e'=a | g6 | z6 | z6 | z6 | e'c'agec | G z z4 | z6 | %44
 z6 | z c'bfdc | B3 dfb | g6 | ^fga=abd' | c'6 | z6 | z6 | z6 | z6 | z6 | gagaga | fgfgfg | %57
"^rall" efefef |[Q:1/4=80] dc =B4 |[Q:1/4=80]"^\nandante" G2 c2 e2 | g2 c'/b/a/g/a/e/c/A/ | %61
 e2 d2 f2 | e2 e'/d'/c'/g/e/d/c/G/ | c2 e2 g2 | c'2 c'/b/a/g/a/e/c/A/ | b2 a2 b2 | %66
 g2 e'/c'/b/g/ e/c/B/G/ | d2 g2 b2 | d'/g/c'/g/ b/g/=a/g/ b/g/d'/g/ | %69
 c'/^f/b/f/ =a/f/_a/f/ =a/f/c'/f/ | c'/g/b/g/ =a/g/_a/g/ =a/g/c'/g/ | %71
 c'/f/b/f/ =a/f/g/f/ a/f/c'/f/ | b/e/=a/e/ g/e/f/e/ g/e/b/e/ | %73
 =a/d/^f/d/[Q:1/4=60] b/d/f/d/ a/d/f/d/ |"^rall..." g/B/d/B/ =a/B/d/B/ g/B/d/B/ | dg !fermata!b4 |] %76
V:2
 x6 | x6 | x6 | x6 | x6 | x6 | x6 | A6 | =B6 | c6 | x6 | e6 | f6 | g6 | x6 | e6 | ^f6 | g6 | f6 | %19
 B6 | c6 | B6 | x6 | x6 | x6 | x6 | x6 | x6 | x6 | x6 | x6 | x6 | x6 | x6 | x6 | x6 | x6 | x6 | %38
 x6 | x6 | x6 | x6 | x6 | x6 | x6 | x6 | x6 | x6 | x6 | x6 | x6 | x6 | x6 | x6 | x6 | x6 | x6 | %57
 x6 | x6 | x6 | x6 | x6 | x6 | x6 | x6 | x6 | x6 | x6 | x6 | x6 | x6 | x6 | x6 | x6 | x6 | x6 |] %76
V:3
 z6 | z6 | z6 | z2 z2 [=bd']2 | x6 | z6 | z6 |!p! z6 | z6 | z6 | g2 e2 c2 | z2 afae | z2 d'bd'a | %13
 z2 d'bd'g | z6 | g2 f2 e2 |!<(! d2 ^f2 =a2!<)! |!mp!!mf! b2- bdgB | c2 =acf=A | B2 gceG | %20
 =A2 =ad^fA | G2 gB dG |"^subito"!p! g2 c'2 e'2 |!8va(! g'4 g'2 | f'2 e'2 d'2 | e'6 | c'2 e'2 g'2 | %27
 c''4 c''2 | c''2 b'2 a'2 | b'6 |!<(! d'2 g'2 b'2!<)! |!mf! d''4 c''2 | b'2 =a'2 b'2 | c''4 b'2 | %34
 =a'4 g'2 | f'2 e'2 f'2 | (6:4:6g'_g'f'=e'_e'd' (3_d'c'=a | gbd'g'b'd'' | .g''2 z4!8va)! | z6 | %40
 z6 | z2 z4 | z ge[I:staff +1]cGE |!mf!!8va(![I:staff -1] =a'4 a'2 | =a'2 b'2!>(! c''2!>)! | %45
!mp! d''6- | d''6!8va)! | z2 gBeG | z6 |!<(! gfecGF!<)! | z6 |!f! [d^f=a]4 [dfa]2 | %52
 [d^f=a]2 [=egb]2 [fac']2 | [dgb]6 | [cfa]3 [dfb]3 | [Beg]6 |!mf! [cdf]6 |!mp! [Gce]6 | %58
!p! [G=Bd]6 | z6 | [Acf]4 [Ace]2 | [Gce]4 [G=Bd]2 | [EGc]6- | [EGc]6 | [cea]4 [ceg]2 | %65
 [Bdg]4 [Bdf]2 | [Beg]6- | [Beg]6 | [ce=a]4 [ceg]2 | [=Acg]4 [Ad^f]2 | [Bd=a]4 [Bdg]2 | %71
 [=Acg]4 [Acf]2 | [GBf]4 [GBe]2 |!>(! [^F=Ae]4 [FAd]2!>)! | [GBd]6- | [GBd]6 |] %76
V:4
 z6 | z6 | z6 | z2 g4 | g[I:staff -1][=bd'][I:staff +1]g[I:staff -1][bd'][I:staff +1] g2- | g6 | %6
 z6 | z6 | z6 | z6 |!ped! e2 c2 G2!ped-up! | z2!ped! [Ac]4!ped-up! | z2!ped! [df]4!ped-up! | %13
 z2 [eg]4 | z6 | e2 d2 c2 | B2 d2 ^f2 | g6 |!ped! =A6!ped-up! |!ped! G6!ped-up! | %20
!ped! ^F6!ped-up! |!ped! D6!ped-up! |!ped! G,2 C2 E2!ped-up! | G4 G2 | F2 E2 D2 | E6 | %26
!ped! C2 E2 G2!ped-up! | c4 c2 | c2 B2 A2 | B6 |!ped! D2 G2 B2!ped-up! | d4 c2 | B2 =A2 B2 | %33
 c4 B2 | =A4 G2 | F2 E2 F2 |!ped! (6:4:6G_GF=E_ED (3_DC=A,!ped-up! | G,B,DGBd | .g2 z4 | z6 | z6 | %41
 z6 |!ped!!<(! x6!ped-up!!<)! |!ped! =A4 A2!ped-up! |!ped! =A2 B2 c2!ped-up! |!ped! d6-!ped-up! | %46
 d6 |!ped! [EG]6!ped-up! | z6 | GFECG,F, | z6 | [^F=A]4 [FA]2 | [^F=A]2 [GB]2 [Ac]2 | %53
 !arpeggio![GB]6 | [FA]3 [FB]3 | [EG]6 | [FA]6 | [CE]6 | [=B,D]6 | z6 |!mf! [CF]4 [CF]2 | %61
 [CE]4 [=B,D]2 | [G,C]6- | [G,C]6 | [FA]4 [FA]2 | [DG]4 [DF]2 | [EG]6- | [EG]6 | [EG]4 [EG]2 | %69
 [D^F]4 [DF]2 | [DG]4 [DG]2 | [CF]4 [CF]2 | [B,E]4 [B,E]2 | [=A,D]4 [A,D]2 |!p! [G,D]6- | [G,D]6 |] %76
V:5
 z2 [EG] z [EG] z!mf! | z2 [DF] z [DF] z | z2 [CE] z z [A,C] | z2 [=B,D]4- | [B,D]6- | [B,D]6 | %6
 z6 |[K:bass]!p! z2 [A,E]4 | z2 [G,D]4 | z2 [G,E]4- | [G,E]6 | z2 [A,E]4 | z2 [A,D]4 | z2 [G,D]4- | %14
 [G,D]6 | z2 [G,E]4 | z2 [^F,D]4 | z2 [D,B,]4 | z2 [=A,E]4 | z2 [G,E]4 | z2 [^F,D]4 | z2 [D,B,]4 | %22
!p! z6 | z2 [A,E]4 | z2 [F,=B,]4 | z2 [C,G,]4- | [C,G,]6 | z2 [A,E]4 | z2 [A,D]4 | z2 [G,D]4- | %30
 [G,D]6 |!mf! z2 [G,E]4 | z2 [^F,D]4 | z2 [D,B,]4 | z2 [=A,E]4 | z2 [G,^C]4 | z2 [^F,C]4 | %37
 z2 [D,B,]4 | z6 |!p! =B,4 B,2 | =B,2 C2 D2 | E6- | E6 | z2!mf! [C,=A,]4 | z2 [E,C]4 | %45
!mp! z2 [D,=A,]4- | [D,A,]6 | z2 [E,B,]4 | z2 GB,EG, | z2 [E,C]4- |!<(! [E,C]6!<)! | %51
!f! D,=A,DA,DA, | D,=A,DA,DA, | G,, x x4 | F,,C,A, B,,F,D | [B,,E,B,]6 |!mf! [C,F,C]6 | %57
!mp! [C,G,C]6 |!p! [=B,,F,=B,]6 | z6 |!mf! [A,,C,A,]6 | [=B,,F,=B,]6 | [E,,C,E,]6- | [E,,C,E,]6 | %64
 [C,F,C]6 | [B,,F,B,]6 | [B,,E,B,]6- | [B,,E,B,]6 | [C,G,C]6 | [=A,,D,=A,]6 | [B,,G,B,]6 | %71
 [=A,,F,=A,]6 | [G,,E,G,]6 | [^F,,D,^F,]6 |!p! x6 | [B,,D,]6 |] %76
V:6
!ped! C,G,CG,CG,!ped-up! |!ped! B,,F,B,F,B,F,!ped-up! |!ped! A,,E,A,F,,C,F,!ped-up! | %3
!ped! G,,D, G,4- | G,6 | [G,,,G,,]6!ped-up! | z6 |!ped! [F,,,F,,]6!ped-up! | %8
!ped! [G,,,G,,]6!ped-up! |!ped! [C,,C,]6- | [C,,C,]6!ped-up! |!ped! [F,,,F,,]6!ped-up! | %12
!ped! [B,,,B,,]6!ped-up! |!ped! [E,,,E,,]6- | [E,,,E,,]6!ped-up! |!ped! [=A,,,=A,,]6!ped-up! | %16
!ped! [D,,D,]6!ped-up! |!mf!!ped! [G,,,G,,]6!ped-up! |!ped! [F,,,F,,]6!ped-up! | %19
!ped! [C,,C,]6!ped-up! |!ped! [D,,D,]6!ped-up! |!ped! [G,,,G,,]6!ped-up! | z6 | %23
!ped! [F,,,F,,]6!ped-up! |!ped! [G,,,G,,]6!ped-up! |!ped! [C,,,C,,]6-!ped-up! | [C,,,C,,]6 | %27
!ped! [F,,,F,,]6!ped-up! |!ped! [B,,,B,,]6!ped-up! |!ped! [E,,,E,,]6- | [E,,,E,,]6!ped-up! | %31
!ped! [=A,,,=A,,]6!ped-up! |!ped! [D,,D,]6!ped-up! |!ped! [G,,,G,,]6!ped-up! | %34
!ped! [F,,,F,,]6!ped-up! |!ped! [E,,,E,,]6!ped-up! |!ped! [D,,,D,,]6!ped-up! | %37
!ped! [G,,,G,,]4 .D,,2!ped-up! | .G,,,2 z4 |!ped! G,,2 [F,A,]2 [F,A,]2!ped-up! | %40
!ped! G,,2 [F,G,]2 [F,G,]2!ped-up! |!ped! C,,2 [E,C]4- | [E,C]6!ped-up! |!ped! [F,,,F,,]6!ped-up! | %44
!ped! [F,,,F,,]6!ped-up! | [B,,,B,,]6- | [B,,,B,,]6 |!ped! [E,,,E,,]6!ped-up! | %48
!ped! [E,,,E,,]6!ped-up! |!ped! x6 | [A,,,A,,]6!ped-up! |!ped! D,,=A,,D,A,,D,A,,!ped-up! | %52
!ped! D,,=A,,D,A,,D,A,,!ped-up! |!ped! G,,,D,,B,,[I:staff -1]D,G,B,!ped-up! | %54
!ped![I:staff +1] F,,,3!ped-up!!ped! B,,,3!ped-up! |!ped! [E,,,E,,]6!ped-up! | %56
!ped! [A,,,A,,]6!ped-up! |!ped! [G,,,G,,]6!ped-up! |!ped! [G,,,G,,]6!ped-up! | z6 | [F,,,F,,]6 | %61
 [G,,,G,,]6 | [C,,,C,,]6- | [C,,,C,,]6 | [F,,,F,,]6 | [B,,,B,,]6 | [E,,,E,,]6- | [E,,,E,,]6 | %68
 [=A,,,=A,,]6 | [D,,,D,,]6 | [G,,,G,,]6 | [F,,,F,,]6 | [F,,,E,,]6 | [D,,,D,,]6 |!ped! [G,,,G,,]6- | %75
 [G,,,G,,]6!ped-up! |] %76
V:7
 x6 | x6 | x6 | x6 | x6 | x6 | x6 | x6 | x6 | x6 | x6 | x6 | x6 | x6 | x6 | x6 | x6 | x6 | x6 | %19
 x6 | x6 | x6 | x6 | x6 | x6 | x6 | x6 | x6 | x6 | x6 | x6 | x6 | x6 | x6 | x6 | x6 | x6 | x6 | %38
 x6 | x6 | x6 | x6 | x6 | x6 | x6 | x6 | x6 | x6 | z2 [B,,G,]4 | [=A,,,=A,,]6- | %50
 E,C,=A,,G,,E,,C,, | x6 | x6 | x6 | x6 | x6 | x6 | x6 | x6 | x6 | x6 | x6 | x6 | x6 | x6 | x6 | %66
 x6 | x6 | x6 | x6 | x6 | x6 | x6 | x6 | x6 | x6 |] %76
V:8
 x6 | x6 | x6 | x6 | x6 | x6 | x6 |[K:bass] x6 | x6 | x6 | x6 | x6 | x6 | x6 | x6 | x6 | x6 | x6 | %18
 x6 | x6 | x6 | x6 | x6 | x6 | x6 | x6 | x6 | x6 | x6 | x6 | x6 | x6 | x6 | x6 | x6 | x6 | x6 | %37
 x6 | x6 | x6 | x6 | x6 | x6 | x6 | x6 | x6 | x6 | x6 | x6 | x6 | EC=A,G,E,C, | x6 | x6 | x6 | x6 | %55
 x6 | x6 | x6 | x6 | x6 | x6 | x6 | x6 | x6 | x6 | x6 | x6 | x6 | x6 | x6 | x6 | x6 | x6 | x6 | %74
 [B,,D,]6- | x6 |] %76

